X: 1
T: Dorothy Shaw
R: jig
Z: 2004 John Chambers <jc:trillian.mit.edu>
M: 6/8
L: 1/8
K: G
"D7"c \
| "G"B2B GAB | "D7"A2F D2D | "G"G2G "D7"ABc | "G"d3 d2d \
| "C"e2e "G"dBd | "D7"cAc "G"B2B | "Am"A2A "D7"DEF | "G"G3- G2 ||
F \
| "Em"E2E "Am"edc | "Em"B2G E2F | "Em"E2E "Am"edc | "Em"B3- B2B \
| "Am"A2A "Dm"ag=f | "Am"e2c A2B | "Am"A2A "Dm"ag=f | "Am"e3- e2 |]
"E7"d \
| "Am"e2e cde | "G"d2d B2B | "F"c2c ABc | "G7"B2B G2d \
| "C"e2e cde | "G7"d2d B2g | "D"fed "A7"AB^c | "D"d3- d2 ||
"D7"c \
| "G"B2B GAB | "D7"A2F D2D | "G"G2G "D7"ABc | "G"d3 d2d \
| "C"ece "G"dBd | "Am"cAc "Em"B2B | "Am"A2A "D7"def | "G"g3 -g2 |]
